storage/app/icons/phosphoricons/thin/printer-thin.svg

<svg xmlns="http://www.w3.org/2000/svg" fill="currentColor" viewBox="0 0 256 256"><path d="M214.67 76H196V40a4 4 0 0 0-4-4H64a4 4 0 0 0-4 4v36H41.33C29.57 76 20 85 20 96v80a4 4 0 0 0 4 4h36v36a4 4 0 0 0 4 4h128a4 4 0 0 0 4-4v-36h36a4 4 0 0 0 4-4V96c0-11-9.57-20-21.33-20M68 44h120v32H68Zm120 168H68v-56h120Zm40-40h-32v-20a4 4 0 0 0-4-4H64a4 4 0 0 0-4 4v20H28V96c0-6.62 6-12 13.33-12h173.34C222 84 228 89.38 228 96Zm-32-56a8 8 0 1 1-8-8 8 8 0 0 1 8 8"/></svg>

<svg xmlns="http://www.w3.org/2000/svg" viewBox="0 0 256 256" fill="currentColor"><path d="M214.67,76H196V40a4,4,0,0,0-4-4H64a4,4,0,0,0-4,4V76H41.33C29.57,76,20,85,20,96v80a4,4,0,0,0,4,4H60v36a4,4,0,0,0,4,4H192a4,4,0,0,0,4-4V180h36a4,4,0,0,0,4-4V96C236,85,226.43,76,214.67,76ZM68,44H188V76H68ZM188,212H68V156H188Zm40-40H196V152a4,4,0,0,0-4-4H64a4,4,0,0,0-4,4v20H28V96c0-6.62,6-12,13.33-12H214.67C222,84,228,89.38,228,96Zm-32-56a8,8,0,1,1-8-8A8,8,0,0,1,196,116Z"/></svg>
